X:1856
T:Bourrée
C:MCTB 2/42
D:
M:3/8
L:1/16
K:C
g2|egfefd|g2efg2|egfefd|egc2|\
egfefd|g2efg2|egfefd|1 g4:|2 g6||
|:egfefd|c2e2c2|Bcd2de|f2efg2|\
egfefd|c2e2c2|BcdedB|1 c6:|2 c4||


